X: 153
T:Danza das Burgas
M:2/4
L:1/8
Q:400
C:Trad
R:Pasodoble
K:C
G2 |: c2BA |GFED |C3 E | DCDE |F3G |
FDEF |G3A | GCEG | c2 BA| GFED |C3 E |
DCDE | F3A | GFED |C2 E2 |1 C2G2 :|2 C2EF|
|: "segunda voz una tercera abajo"G4- | G2 A2 |G4-| G2 c2 |B3A | G2 AB |
 c2BA |G2EF |
G4- | G2 A2 |G4-| G2 c2B3AG2AB |c4-|c2 EF :|
|: "segunda voz, repite la parte anterior"GECE | GEAE |GECE |GEAE |GF DE
| FDEF |GECE |EDEF |
GECE | GEAE | GECE |GEAE | GFDE | GFED |CEGE |1 C2 EF :|2 C2G2 ||

